Catalina-light/actions/16/kstars_fitsviewer.svg

<svg xmlns="http://www.w3.org/2000/svg" width="16" height="16" viewBox="0 0 16 16">
 <defs>
  <style id="current-color-scheme" type="text/css">
   .ColorScheme-Text { color:#5c616c; } .ColorScheme-Highlight { color:#5294e2; }
  </style>
 </defs>
 <path style="fill:currentColor" class="ColorScheme-Text" d="M 6 2 C 2.134 2 0 4.679875 0 7.984375 C 0 11.288975 2.134 13.75 6 13.75 C 2.7783 13.75 1.1660156 10.738275 1.1660156 7.984375 C 1.1659901 5.230475 2.7783 2.9960938 6 2.9960938 C 7.4561 2.9960938 8.7708687 3.4705094 9.7929688 4.2246094 C 9.2211887 4.0506094 8.6134 3.9606844 8 3.9589844 C 5.2386 3.9589844 3 5.712 3 7.875 L 3 7.8847656 C 3.00102 7.9907656 3.0075402 8.097525 3.0195312 8.203125 C 3.2124813 11.433425 6.2585 14.001953 10 14.001953 C 13.866 14.001953 16 11.260106 16 7.8789062 C 16 4.4976062 13.866 2.0019531 10 2.0019531 C 13.2217 2.0019531 14.833984 5.0592531 14.833984 7.8769531 C 14.83401 10.694653 13.2217 12.978516 10 12.978516 C 8.3275 12.978516 6.8233656 12.359347 5.7597656 11.373047 C 6.4547856 11.647147 7.2219 11.790016 8 11.791016 C 10.705 11.791016 12.916888 10.102375 12.992188 7.984375 L 13 7.984375 C 13 7.965375 12.996294 7.9447813 12.996094 7.9257812 C 12.997494 7.9087812 12.9988 7.892 13 7.875 C 12.9983 7.7414 12.98786 7.6073094 12.96875 7.4746094 C 12.66616 4.4086094 9.6652 2 6 2 z"/>
</svg>

<svg width="16" height="16" viewBox="0 0 16 16" xmlns="http://www.w3.org/2000/svg">
<defs>
<style id="current-color-scheme" type="text/css">.ColorScheme-Text { color:#5c616c; } .ColorScheme-Highlight { color:#5294e2; }</style>
</defs>
<path class="ColorScheme-Text" d="m6 2c-3.866 0-6 2.6799-6 5.9844 0 3.3046 2.134 5.7656 6 5.7656-3.2217 0-4.834-3.0117-4.834-5.7656-2.55e-5 -2.7539 1.6123-4.9883 4.834-4.9883 1.4561 0 2.7709 0.47442 3.793 1.2285-0.57178-0.174-1.1796-0.26392-1.793-0.26562-2.7614 0-5 1.753-5 3.916v0.0097656c0.00102 0.106 0.0075402 0.21276 0.019531 0.31836 0.19295 3.2303 3.239 5.7988 6.9805 5.7988 3.866 0 6-2.7418 6-6.123 0-3.3813-2.134-5.877-6-5.877 3.2217 0 4.834 3.0573 4.834 5.875 2.6e-5 2.8177-1.6123 5.1016-4.834 5.1016-1.6725 0-3.1766-0.61917-4.2402-1.6055 0.69502 0.2741 1.4621 0.41697 2.2402 0.41797 2.705 0 4.9169-1.6886 4.9922-3.8066h0.007812c0-0.019-0.003706-0.039594-0.003906-0.058594 0.0014-0.017 0.002706-0.033781 0.003906-0.050781-0.0017-0.1336-0.01214-0.26769-0.03125-0.40039-0.30259-3.066-3.3036-5.4746-6.9688-5.4746z" fill="#363636"/>
</svg>
